;FLAVOR:Marlin
;TIME:36348
;Filament used: 32.7009m
;Layer height: 0.2
;MINX:58.535
;MINY:0
;MINZ:0.2
;MAXX:161.465
;MAXY:220
;MAXZ:40
;TARGET_MACHINE.NAME:Creality Ender-3 Pro
;Generated with Cura_SteamEngine 5.9.1
M82 ;absolute extrusion mode
; Ender 3 Custom Start G-code
G92 E0 ; Reset Extruder
G28 ; Home all axes
G1 Z5.0 F3000 ; Move Z Axis up a bit during heating to not damage bed
M104 S175 ; Start heating up the nozzle most of the way
M190 S60 ; Start heating the bed, wait until target temperature reached
M109 S200 ; Finish heating the nozzle
G1 Z2.0 F3000 ; Move Z Axis up little to prevent scratching of Heat Bed
G1 X0.1 Y20 Z0.3 F5000.0 ; Move to start position
G1 X0.1 Y200.0 Z0.3 F1500.0 E15 ; Draw the first line
G1 X0.4 Y200.0 Z0.3 F5000.0 ; Move to side a little
G1 X0.4 Y20 Z0.3 F1500.0 E30 ; Draw the second line
G92 E0 ; Reset Extruder
G1 Z2.0 F3000 ; Move Z Axis up little to prevent scratching of Heat Bed
G1 X5 Y20 Z0.3 F5000.0 ; Move over to prevent blob squish
G92 E0
G92 E0
G1 F1500 E-6.5
;LAYER_COUNT:200
;LAYER:0
M107
G0 F6000 X64.404 Y0.00 Z0.2
;TYPE:SKIRT
G1 F1500 E0
G1 F1200 X63.76 Y0.381 E0.03733
G1 X62.853 Y1.038 E0.09321
G1 X62.168 Y1.634 E0.13851
G1 X61.463 Y2.358 E0.18892
G1 X60.823 Y3.144 E0.23949
G1 X60.198 Y4.075 E0.29543
G1 X59.738 Y4.916 E0.34326
G1 X59.349 Y5.794 E0.39117
G1 X59.02 Y6.751 E0.44166
G1 X58.776 Y7.736 E0.49228
G1 X58.608 Y8.843 E0.54814
G1 X58.552 Y9.749 E0.59343
G1 X58.538 Y10.466 E0.62921
G1 X58.535 Y209.634 E10.56574
G1 X58.547 Y210.273 E10.59763
G1 X58.656 Y211.577 E10.66291
G1 X58.868 Y212.695 E10.71968
G1 X59.116 Y213.568 E10.76496
G1 X59.516 Y214.613 E10.82078
G1 X59.938 Y215.474 E10.86862
G1 X60.431 Y216.298 E10.91653
G1 X61.09 Y217.204 E10.97242
G1 X61.722 Y217.925 E11.02025
G1 X62.413 Y218.592 E11.06817
G1 X63.2 Y219.23 E11.11871
G1 X64.132 Y219.853 E11.17464
G1 X64.401 Y220 E11.18994
G0 F6000 X65.758 Y220
G1 F1200 X65.216 Y219.761 E11.21949
G1 X64.42 Y219.326 E11.26474
G1 X63.577 Y218.763 E11.31532
G1 X62.83 Y218.16 E11.36321
G1 X62.139 Y217.493 E11.41113
G1 X61.542 Y216.809 E11.45642
G1 X60.946 Y215.99 E11.50696
G1 X60.453 Y215.166 E11.55486
G1 X60.055 Y214.35 E11.60016
G1 X59.693 Y213.404 E11.65069
G1 X59.445 Y212.531 E11.69597
G1 X59.254 Y211.526 E11.747
G1 X59.147 Y210.262 E11.81029
G1 X59.135 Y209.634 E11.84163
G1 X59.138 Y10.477 E21.77761
G1 X59.151 Y9.786 E21.81209
G1 X59.207 Y8.88 E21.85738
G1 X59.359 Y7.879 E21.90789
G1 X59.588 Y6.945 E21.95587
G1 X59.898 Y6.037 E22.00374
G1 X60.287 Y5.159 E22.05165
G1 X60.724 Y4.364 E22.09691
G1 X61.289 Y3.522 E22.1475
G1 X61.894 Y2.776 E22.19541
G1 X62.562 Y2.087 E22.24329
G1 X63.247 Y1.491 E22.28859
G1 X64.067 Y0.897 E22.33911
G1 X64.892 Y0.406 E22.387
G1 X65.735 Y0.00 E22.43369
G1 F1500 E15.93369
G0 F6000 X67.629 Y0.00
G1 F1500 E22.43369
G1 F1200 X66.819 Y0.228 E22.47567
G1 X65.971 Y0.55 E22.52092
G1 X65.154 Y0.946 E22.56622
G1 X64.375 Y1.412 E22.6115
G1 X63.641 Y1.944 E22.65673
G1 X62.956 Y2.54 E22.70203
G1 X62.326 Y3.193 E22.7473
G1 X61.756 Y3.899 E22.79257
G1 X61.25 Y4.653 E22.83787
G1 X60.813 Y5.448 E22.88313
G1 X60.447 Y6.279 E22.92843
G1 X60.156 Y7.138 E22.97368
G1 X59.942 Y8.02 E23.01896
G1 X59.806 Y8.917 E23.06422
G1 X59.75 Y9.823 E23.10951
G1 X59.738 Y10.488 E23.14269
G1 X59.735 Y209.634 E33.07813
G1 X59.747 Y210.25 E33.10887
G1 X59.852 Y211.475 E33.17021
G1 X60.022 Y212.367 E33.21551
G1 X60.27 Y213.24 E33.26079
G1 X60.594 Y214.087 E33.30603
G1 X60.992 Y214.903 E33.35132
G1 X61.46 Y215.681 E33.39662
G1 X61.994 Y216.414 E33.44186
G1 X62.591 Y217.098 E33.48716
G1 X63.246 Y217.727 E33.53247
G1 X63.953 Y218.295 E33.57771
G1 X64.708 Y218.799 E33.623
G1 X65.504 Y219.234 E33.66825
G1 X66.335 Y219.598 E33.71352
G1 X67.196 Y219.887 E33.75883
G1 X67.664 Y220 E33.78285
G1 F1500 E27.28285
G0 F6000 X155.6 Y220
G1 F1500 E33.78285
G1 F1200 X156.387 Y219.524 E33.82873
G1 X157.119 Y218.987 E33.87403
G1 X157.919 Y218.286 E33.92709
G1 X158.619 Y217.553 E33.97766
G1 X159.22 Y216.804 E34.02557
G1 X159.784 Y215.96 E34.07621
G1 X160.319 Y214.978 E34.132
G1 X160.68 Y214.145 E34.1773
G1 X161.018 Y213.133 E34.23053
G1 X161.261 Y212.097 E34.28362
G1 X161.392 Y211.199 E34.32889
G1 X161.453 Y210.188 E34.37942
G1 X161.464 Y209.407 E34.41839
G1 X161.465 Y10.33 E44.35038
G1 X161.452 Y9.695 E44.38207
G1 X161.344 Y8.422 E44.44581
G1 X161.132 Y7.305 E44.50253
G1 X160.884 Y6.432 E44.54781
G1 X160.484 Y5.387 E44.60363
G1 X160.062 Y4.526 E44.65147
G1 X159.569 Y3.702 E44.69938
G1 X158.91 Y2.796 E44.75527
G1 X158.278 Y2.075 E44.8031
G1 X157.587 Y1.408 E44.85102
G1 X156.8 Y0.77 E44.90156
G1 X155.868 Y0.147 E44.95749
G1 X155.599 Y0.00 E44.97279
G0 F6000 X154.242 Y0.00
G1 F1200 X154.784 Y0.239 E45.00234
G1 X155.58 Y0.674 E45.04759
G1 X156.423 Y1.237 E45.09817
G1 X157.17 Y1.84 E45.14606
G1 X157.861 Y2.507 E45.19398
G1 X158.458 Y3.191 E45.23927
G1 X159.054 Y4.01 E45.28981
G1 X159.547 Y4.834 E45.33771
G1 X159.945 Y5.65 E45.38301
G1 X160.307 Y6.596 E45.43354
G1 X160.555 Y7.469 E45.47882
G1 X160.746 Y8.473 E45.52981
G1 X160.852 Y9.708 E45.59165
G1 X160.865 Y10.33 E45.62269
G1 X160.864 Y209.399 E55.55428
G1 X160.854 Y210.153 E55.5919
G1 X160.798 Y211.112 E55.63983
G1 X160.667 Y212.01 E55.6851
G1 X160.448 Y212.944 E55.73296
G1 X160.129 Y213.906 E55.78353
G1 X159.768 Y214.739 E55.82882
G1 X159.284 Y215.628 E55.87932
G1 X158.752 Y216.428 E55.92725
G1 X158.151 Y217.177 E55.97516
G1 X157.486 Y217.871 E56.02311
G1 X156.764 Y218.503 E56.07099
G1 X156.032 Y219.04 E56.11628
G1 X155.166 Y219.564 E56.16678
G1 X154.268 Y220 E56.21658
G1 F1500 E49.71658
G0 F6000 X152.385 Y220
G1 F1500 E56.21658
G1 F1200 X153.24 Y219.753 E56.26098
G1 X154.086 Y219.427 E56.30621
G1 X154.901 Y219.026 E56.35153
G1 X155.677 Y218.556 E56.39679
G1 X156.409 Y218.019 E56.44208
G1 X157.09 Y217.42 E56.48733
G1 X157.717 Y216.763 E56.53264
G1 X158.283 Y216.054 E56.5779
G1 X158.784 Y215.297 E56.62319
G1 X159.217 Y214.5 E56.66844
G1 X159.578 Y213.667 E56.71374
G1 X159.864 Y212.806 E56.759
G1 X160.073 Y211.923 E56.80427
G1 X160.204 Y211.025 E56.84954
G1 X160.255 Y210.119 E56.89482
G1 X160.264 Y209.392 E56.93109
G1 X160.265 Y10.33 E66.86233
G1 X160.252 Y9.721 E66.89272
G1 X160.148 Y8.525 E66.95262
G1 X159.978 Y7.633 E66.99792
G1 X159.73 Y6.76 E67.0432
G1 X159.406 Y5.913 E67.08844
G1 X159.008 Y5.097 E67.13374
G1 X158.54 Y4.319 E67.17903
G1 X158.006 Y3.586 E67.22428
G1 X157.409 Y2.902 E67.26957
G1 X156.754 Y2.273 E67.31488
G1 X156.047 Y1.705 E67.36012
G1 X155.292 Y1.201 E67.40541
G1 X154.496 Y0.766 E67.45067
G1 X153.665 Y0.402 E67.49593
G1 X152.804 Y0.113 E67.54124
G1 X152.336 Y0.00 E67.56526
G1 F1500 E61.06526
G0 F6000 X119.561 Y9.347
G0 X115.479 Y22.3
G0 X115.114 Y22.3
G1 F1500 E67.56526
G1 F1200 X114.415 Y22.3 E67.60013
G1 X113.762 Y22.172 E67.63333
G1 X113.13 Y22.106 E67.66503
G1 X112.822 Y22.086 E67.68043
G1 X112.501 Y22.078 E67.69645
G1 X112.235 Y22.081 E67.70972
G1 X111.912 Y22.095 E67.72585
G1 X111.667 Y22.113 E67.73811
G1 X111.04 Y22.18 E67.76957
G1 X110.49 Y22.279 E67.79745
G1 X110.427 Y22.3 E67.80076
G1 X109.604 Y22.3 E67.84182
G1 X108.951 Y22.172 E67.87502
G1 X108.319 Y22.106 E67.90672
G1 X108.011 Y22.086 E67.92212
G1 X107.69 Y22.078 E67.93814
G1 X107.424 Y22.081 E67.95141
G1 X107.101 Y22.095 E67.96754
G1 X106.856 Y22.113 E67.9798
G1 X106.229 Y22.18 E68.01126
G1 X105.679 Y22.279 E68.03914
G1 X105.616 Y22.3 E68.04245
G1 X104.885 Y22.3 E68.07892
G1 X104.885 Y12.7 E68.55787
G1 X105.728 Y12.7 E68.59992
G1 X106.112 Y12.782 E68.61951
G1 X106.695 Y12.862 E68.64887
G1 X106.975 Y12.89 E68.66291
G1 X107.271 Y12.909 E68.67771
G1 X107.588 Y12.916 E68.69353
G1 X108.052 Y12.908 E68.71668
G1 X108.407 Y12.886 E68.73442
G1 X108.692 Y12.855 E68.74873
G1 X108.968 Y12.815 E68.76264
G1 X109.243 Y12.765 E68.77659
G1 X109.496 Y12.7 E68.78962
G1 X110.54 Y12.7 E68.8417
G1 X110.924 Y12.782 E68.86129
G1 X111.507 Y12.862 E68.89065
G1 X111.787 Y12.89 E68.90469
G1 X112.083 Y12.909 E68.91949
G1 X112.4 Y12.916 E68.93531
G1 X112.864 Y12.908 E68.95846
G1 X113.219 Y12.886 E68.9762
G1 X113.504 Y12.855 E68.99051
G1 X113.78 Y12.815 E69.00442
G1 X114.055 Y12.765 E69.01837
G1 X114.308 Y12.7 E69.0314
G1 X115.114 Y12.7 E69.07161
G1 X115.114 Y22.3 E69.55055
G0 F6000 X115.714 Y22.9
G1 F1200 X114.3 Y22.9 E69.6211
G1 X113.7 Y22.769 E69.65174
G1 X113.068 Y22.703 E69.68344
G1 X112.807 Y22.686 E69.69649
G1 X112.486 Y22.678 E69.71251
G1 X112.261 Y22.68 E69.72374
G1 X111.938 Y22.694 E69.73986
G1 X111.73 Y22.71 E69.75027
G1 X111.103 Y22.777 E69.78173
G1 X110.599 Y22.871 E69.80731
G1 X110.517 Y22.9 E69.81165
G1 X109.489 Y22.9 E69.86294
G1 X108.889 Y22.769 E69.89358
G1 X108.257 Y22.703 E69.92528
G1 X107.996 Y22.686 E69.93833
G1 X107.675 Y22.678 E69.95435
G1 X107.45 Y22.68 E69.96557
G1 X107.127 Y22.694 E69.9817
G1 X106.919 Y22.71 E69.99211
G1 X106.292 Y22.777 E70.02357
G1 X105.788 Y22.871 E70.04915
G1 X105.706 Y22.9 E70.05349
G1 X104.285 Y22.9 E70.12438
G1 X104.285 Y12.1 E70.66319
G1 X105.823 Y12.1 E70.73993
G1 X106.193 Y12.187 E70.75889
G1 X106.776 Y12.267 E70.78825
G1 X107.014 Y12.291 E70.80018
G1 X107.31 Y12.31 E70.81498
G1 X107.578 Y12.317 E70.82835
G1 X108.042 Y12.309 E70.85151
G1 X108.342 Y12.29 E70.8665
G1 X108.627 Y12.259 E70.88081
G1 X108.86 Y12.225 E70.89255
G1 X109.135 Y12.175 E70.9065
G1 X109.42 Y12.1 E70.9212
G1 X110.635 Y12.1 E70.98182
G1 X111.005 Y12.187 E71.00078
G1 X111.588 Y12.267 E71.03014
G1 X111.826 Y12.291 E71.04207
G1 X112.122 Y12.31 E71.05687
G1 X112.39 Y12.317 E71.07025
G1 X112.854 Y12.309 E71.0934
G1 X113.154 Y12.29 E71.1084
G1 X113.439 Y12.259 E71.1227
G1 X113.672 Y12.225 E71.13445
G1 X113.947 Y12.175 E71.14839
G1 X114.232 Y12.1 E71.16309
G1 X115.714 Y12.1 E71.23703
G1 X115.714 Y22.9 E71.77585
G0 F6000 X116.314 Y23.5
G1 F1200 X114.221 Y23.5 E71.88027
G1 X113.876 Y23.401 E71.89817
G1 X113.637 Y23.366 E71.91022
G1 X113.005 Y23.3 E71.94193
G1 X112.792 Y23.286 E71.95257
G1 X112.471 Y23.278 E71.96859
G1 X112.287 Y23.28 E71.97777
G1 X111.964 Y23.294 E71.9939
G1 X111.794 Y23.306 E72.00241
G1 X111.167 Y23.373 E72.03387
G1 X110.711 Y23.462 E72.05705
G1 X110.612 Y23.5 E72.06234
G1 X109.41 Y23.5 E72.1223
G1 X109.065 Y23.401 E72.14021
G1 X108.826 Y23.366 E72.15226
G1 X108.194 Y23.3 E72.18396
G1 X107.981 Y23.286 E72.19461
G1 X107.66 Y23.278 E72.21063
G1 X107.476 Y23.28 E72.21981
G1 X107.153 Y23.294 E72.23594
G1 X106.983 Y23.306 E72.24445
G1 X106.356 Y23.373 E72.2759
G1 X105.9 Y23.462 E72.29908
G1 X105.801 Y23.5 E72.30437
G1 X103.685 Y23.5 E72.40994
G1 X103.685 Y11.5 E73.00862
G1 X105.912 Y11.5 E73.11973
G1 X106.275 Y11.593 E73.13842
G1 X106.858 Y11.673 E73.16778
G1 X107.052 Y11.692 E73.17751
G1 X107.348 Y11.711 E73.19231
G1 X107.568 Y11.717 E73.20329
G1 X108.032 Y11.709 E73.22644
G1 X108.277 Y11.693 E73.23869
G1 X108.562 Y11.662 E73.25299
G1 X108.753 Y11.634 E73.26262
G1 X109.028 Y11.584 E73.27657
G1 X109.336 Y11.5 E73.29249
G1 X110.724 Y11.5 E73.36174
G1 X111.087 Y11.593 E73.38044
G1 X111.67 Y11.673 E73.40979
G1 X111.864 Y11.692 E73.41952
G1 X112.16 Y11.711 E73.43432
G1 X112.38 Y11.717 E73.4453
G1 X112.844 Y11.709 E73.46845
G1 X113.089 Y11.693 E73.4807
G1 X113.374 Y11.662 E73.495
G1 X113.565 Y11.634 E73.50463
G1 X113.84 Y11.584 E73.51858
G1 X114.148 Y11.5 E73.5345
G1 X116.314 Y11.5 E73.64257
G1 X116.314 Y23.5 E74.24125
G0 F6000 X116.914 Y24.1
G1 F1200 X114.121 Y24.1 E74.38059
G1 X113.782 Y23.995 E74.3983
G1 X113.575 Y23.962 E74.40876
G1 X112.943 Y23.896 E74.44046
G1 X112.777 Y23.886 E74.44875
G1 X112.456 Y23.878 E74.46477
G1 X112.313 Y23.879 E74.47191
G1 X111.99 Y23.893 E74.48804
G1 X111.858 Y23.903 E74.49464
G1 X111.231 Y23.97 E74.5261
G1 X110.83 Y24.053 E74.54653
G1 X110.719 Y24.1 E74.55255
G1 X109.31 Y24.1 E74.62284
G1 X108.971 Y23.995 E74.64055
G1 X108.764 Y23.962 E74.651
G1 X108.132 Y23.896 E74.68271
G1 X107.966 Y23.886 E74.691
G1 X107.645 Y23.878 E74.70702
G1 X107.502 Y23.879 E74.71416
G1 X107.179 Y23.893 E74.73029
G1 X107.047 Y23.903 E74.73689
G1 X106.42 Y23.97 E74.76835
G1 X106.019 Y24.053 E74.78878
G1 X105.908 Y24.1 E74.79479
G1 X103.085 Y24.1 E74.93563
G1 X103.085 Y10.9 E75.59419
G1 X105.997 Y10.9 E75.73947
G1 X106.357 Y10.999 E75.75809
G1 X106.94 Y11.079 E75.78745
G1 X107.09 Y11.094 E75.79497
G1 X107.386 Y11.113 E75.80977
G1 X107.557 Y11.117 E75.8183
G1 X108.021 Y11.109 E75.84146
G1 X108.212 Y11.097 E75.851
G1 X108.497 Y11.066 E75.86531
G1 X108.646 Y11.044 E75.87282
G1 X108.921 Y10.994 E75.88677
G1 X109.251 Y10.9 E75.90388
G1 X110.809 Y10.9 E75.98161
G1 X111.169 Y10.999 E76.00024
G1 X111.752 Y11.079 E76.0296
G1 X111.902 Y11.094 E76.03712
G1 X112.198 Y11.113 E76.05192
G1 X112.369 Y11.117 E76.06045
G1 X112.833 Y11.109 E76.0836
G1 X113.024 Y11.097 E76.09315
G1 X113.309 Y11.066 E76.10745
G1 X113.458 Y11.044 E76.11497
G1 X113.733 Y10.994 E76.12891
G1 X114.063 Y10.9 E76.14603
G1 X116.914 Y10.9 E76.28827
G1 X116.914 Y24.1 E76.94682
G0 F6000 X117.514 Y24.7
G1 F1200 X113.998 Y24.7 E77.12223
G1 X113.962 Y24.679 E77.12431
G1 X113.513 Y24.559 E77.1475
G1 X112.881 Y24.493 E77.1792
G1 X112.762 Y24.485 E77.18515
G1 X112.441 Y24.477 E77.20117
G1 X112.339 Y24.478 E77.20626
G1 X112.016 Y24.492 E77.22239
G1 X111.922 Y24.499 E77.22709
G1 X111.295 Y24.566 E77.25855
G1 X110.957 Y24.643 E77.27585
G1 X110.84 Y24.7 E77.28234
G1 X109.187 Y24.7 E77.36481
G1 X109.151 Y24.679 E77.36689
G1 X108.702 Y24.559 E77.39007
G1 X108.07 Y24.493 E77.42178
G1 X107.951 Y24.485 E77.42773
G1 X107.63 Y24.477 E77.44375
G1 X107.528 Y24.478 E77.44884
G1 X107.205 Y24.492 E77.46497
G1 X107.111 Y24.499 E77.46967
G1 X106.484 Y24.566 E77.50113
G1 X106.146 Y24.643 E77.51842
G1 X106.029 Y24.7 E77.52492
G1 X102.485 Y24.7 E77.70173
G1 X102.485 Y10.3 E78.42015
G1 X106.072 Y10.3 E78.5991
G1 X106.438 Y10.404 E78.61808
G1 X107.021 Y10.484 E78.64744
G1 X107.129 Y10.495 E78.65286
G1 X107.425 Y10.514 E78.66766
G1 X107.547 Y10.517 E78.67375
G1 X108.011 Y10.509 E78.6969
G1 X108.147 Y10.5 E78.7037
G1 X108.432 Y10.469 E78.718
G1 X108.538 Y10.454 E78.72334
G1 X108.813 Y10.404 E78.73729
G1 X109.144 Y10.303 E78.75455
G1 X109.149 Y10.3 E78.75484
G1 X110.884 Y10.3 E78.8414
G1 X111.25 Y10.404 E78.86038
G1 X111.833 Y10.484 E78.88974
G1 X111.941 Y10.495 E78.89516
G1 X112.237 Y10.514 E78.90996
G1 X112.359 Y10.517 E78.91605
G1 X112.823 Y10.509 E78.9392
G1 X112.959 Y10.5 E78.946
G1 X113.244 Y10.469 E78.9603
G1 X113.35 Y10.454 E78.96564
G1 X113.625 Y10.404 E78.97959
G1 X113.956 Y10.303 E78.99685
G1 X113.961 Y10.3 E78.99714
G1 X117.514 Y10.3 E79.1744
G1 X117.514 Y24.7 E79.89282
G0 F6000 X118.114 Y25.3
G1 F1200 X113.836 Y25.3 E80.10625
G1 X113.688 Y25.214 E80.11479
G1 X113.45 Y25.156 E80.12701
G1 X112.818 Y25.09 E80.15871
G1 X112.747 Y25.085 E80.16227
G1 X112.426 Y25.077 E80.17829
G1 X112.365 Y25.078 E80.18133
G1 X112.042 Y25.092 E80.19746
G1 X111.985 Y25.096 E80.20031
G1 X111.358 Y25.163 E80.23177
G1 X111.099 Y25.231 E80.24513
G1 X110.988 Y25.3 E80.25165
G1 X109.025 Y25.3 E80.34958
G1 X108.877 Y25.214 E80.35812
G1 X108.639 Y25.156 E80.37034
G1 X108.007 Y25.09 E80.40205
G1 X107.936 Y25.085 E80.4056
G1 X107.615 Y25.077 E80.42162
G1 X107.554 Y25.078 E80.42466
G1 X107.231 Y25.092 E80.44079
G1 X107.174 Y25.096 E80.44364
G1 X106.547 Y25.163 E80.4751
G1 X106.288 Y25.231 E80.48846
G1 X106.177 Y25.3 E80.49498
G1 X101.885 Y25.3 E80.70911
G1 X101.885 Y9.7 E81.4874
G1 X106.216 Y9.7 E81.70347
G1 X106.311 Y9.755 E81.70895
G1 X106.52 Y9.81 E81.71973
G1 X107.103 Y9.89 E81.74909
G1 X107.167 Y9.896 E81.7523
G1 X107.463 Y9.915 E81.76709
G1 X107.537 Y9.917 E81.77079
G1 X108.001 Y9.909 E81.79394
G1 X108.082 Y9.904 E81.79799
G1 X108.367 Y9.873 E81.81229
G1 X108.431 Y9.863 E81.81552
G1 X108.706 Y9.813 E81.82947
G1 X108.959 Y9.727 E81.8428
G1 X108.996 Y9.7 E81.84508
G1 X111.028 Y9.7 E81.94646
G1 X111.123 Y9.755 E81.95194
G1 X111.332 Y9.81 E81.96272
G1 X111.915 Y9.89 E81.99208
G1 X111.979 Y9.896 E81.99528
G1 X112.275 Y9.915 E82.01008
G1 X112.349 Y9.917 E82.01378
G1 X112.813 Y9.909 E82.03693
G1 X112.894 Y9.904 E82.04098
G1 X113.179 Y9.873 E82.05528
G1 X113.243 Y9.863 E82.05851
G1 X113.518 Y9.813 E82.07246
G1 X113.771 Y9.727 E82.08579
G1 X113.808 Y9.7 E82.08807
G1 X118.114 Y9.7 E82.3029
G1 X118.114 Y25.3 E83.08119
G0 F6000 X118.714 Y25.9
G1 F1200 X113.616 Y25.9 E83.33553
G1 X113.51 Y25.793 E83.34304
